themes/intrafitness/images/01. Web/1. Home Page/logo_header_large@3x.svg

<svg height="230" viewBox="0 0 349 230" width="349" xmlns="http://www.w3.org/2000/svg" xmlns:xlink="http://www.w3.org/1999/xlink"><defs><filter id="a" height="214.5%" width="186.6%" x="-43.3%" y="-55.9%"><feOffset dx="0" dy="2" in="SourceAlpha" result="shadowOffsetOuter1"/><feGaussianBlur in="shadowOffsetOuter1" result="shadowBlurOuter1" stdDeviation="2"/><feColorMatrix in="shadowBlurOuter1" result="shadowMatrixOuter1" type="matrix" values="0 0 0 0 0   0 0 0 0 0   0 0 0 0 0  0 0 0 0.5 0"/><feMerge><feMergeNode in="shadowMatrixOuter1"/><feMergeNode in="SourceGraphic"/></feMerge></filter><path id="b" d="m201 0v80.8405116 67.5050904c0 2.019316-1.639113 3.654398-3.661069 3.654398h-24.029163-145.3559386-24.29276059c-2.021956 0-3.66106881-1.635082-3.66106881-3.654398v-148.345602z"/><filter id="c" height="249.3%" width="212.9%" x="-56.5%" y="-73.4%"><feMorphology in="SourceAlpha" operator="erode" radius="12.5" result="shadowSpreadOuter1"/><feOffset dx="0" dy="2" in="shadowSpreadOuter1" result="shadowOffsetOuter1"/><feGaussianBlur in="shadowOffsetOuter1" result="shadowBlurOuter1" stdDeviation="50"/><feColorMatrix in="shadowBlurOuter1" type="matrix" values="0 0 0 0 0   0 0 0 0 0.654901961   0 0 0 0 0.929411765  0 0 0 1 0"/></filter></defs><g fill="none" fill-rule="evenodd" filter="url(#a)" transform="translate(74)"><use fill="#000" filter="url(#c)" xlink:href="#b"/><use fill="#002150" fill-rule="evenodd" xlink:href="#b"/><g fill="#fff"><path d="m28 111h3v-21h-3z"/><path d="m65.1220836 90v15.171918l-13.8440148-15.171918h-4.2780688v21h3.8779164v-15.7104345l14.4138653 15.7104345h3.7082183v-21z"/><path d="m81 90v3.526377h9.0313747v17.473623h3.9464402v-17.473623h9.0221851v-3.526377z"/><path d="m119.960756 99.3342775v-5.9183653h7.639625c3.237077 0 4.880216.4864701 4.880216 2.9379394 0 2.4833342-1.643139 2.9804259-4.880216 2.9804259zm10.818275 3.1216935c2.982867-.173132 5.663347-2.310202 5.663347-6.1828437 0-5.148298-3.462586-6.2731273-8.255674-6.2731273h-12.186704v21h3.960756v-8.260432h6.270171l5.887831 8.260432h4.881242z"/><path d="m155.888168 102.658204 4.18459-9.3635449 4.174484 9.3635449zm6.41179-12.658204h-4.4544l-9.845558 21h4.156295l2.110989-4.824095h11.523032l2.082695 4.824095h4.126989z"/><path d="m65 124.349036v-1.349036h-7v8h1.4876274v-3.453961h4.7441048v-1.33833h-4.7441048v-1.858673z"/><path d="m72 131h1v-8h-1z"/><path d="m79 123v1.349036h3.2767528v6.650964h1.4366543v-6.650964h3.2865929v-1.349036z"/><path d="m100.585446 123v5.773019l-5.0256024-5.773019h-1.5598436v8h1.4054736v-5.987152l5.2465634 5.987152h1.347963v-8z"/><path d="m109.497875 129.650964v-2.104925h4.620841v-1.33833h-4.620841v-1.858673h5.374908v-1.349036h-6.872783v8h7v-1.349036z"/><path d="m126.281593 126.32193-1.803421-.272658c-1.51953-.184835-1.714577-.535103-1.714577-.856778 0-.701557 1.023232-.954812 2.027061-.954812 1.811591 0 2.435538.58412 2.679602 1.266275l1.403114-.457493c-.195047-.526934-.760786-2.046464-4.043911-2.046464-.585141 0-3.547613 0-3.547613 2.289507 0 1.160072.984427 1.930049 2.748022 2.16288l1.822823.253255c1.090631.136839 1.65637.458514 1.65637.955834 0 .661731-1.003829 1.062037-2.222109 1.062037-2.016849 0-2.581567-.809804-2.855246-1.36431l-1.431708.448303c.175645.573908.974215 2.192494 4.238958 2.192494 2.036253 0 3.761042-.672964 3.761042-2.475364 0-1.276487-1.014041-1.939239-2.718407-2.202706"/><path d="m140.291805 126.32193-1.812612-.272658c-1.520551-.184835-1.705387-.535103-1.705387-.856778 0-.701557 1.013021-.954812 2.027062-.954812 1.812612 0 2.426347.58412 2.66939 1.266275l1.403114-.457493c-.184835-.526934-.749553-2.046464-4.033699-2.046464-.585141 0-3.556803 0-3.556803 2.289507 0 1.160072.984426 1.930049 2.748021 2.16288l1.821802.253255c1.091652.136839 1.65637.458514 1.65637.955834 0 .661731-1.002808 1.062037-2.221088 1.062037-2.007658 0-2.572376-.809804-2.845034-1.36431l-1.442941.448303c.175645.573908.974215 2.192494 4.24917 2.192494 2.036253 0 3.75083-.672964 3.75083-2.475364 0-1.276487-1.003829-1.939239-2.708195-2.202706"/><path d="m98.9339598 23h-13.8679196c-.7079092 0-1.0660402.3588215-1.0660402 1.0649906v5.1747488c0 .7072122.358131 1.0660338 1.0660402 1.0660338h7.3129731v34.3884536h-7.3129731c-.7079092 0-1.0660402.3577785-1.0660402 1.0639476v5.176835c0 .7165999.358131 1.0649906 1.0660402 1.0649906h13.8679196c.7079092 0 1.0660402-.3483907 1.0660402-1.0649906v-46.8700188c0-.7061691-.358131-1.0649906-1.0660402-1.0649906"/><path d="m118.923589 30.3057732c.717259 0 1.076411-.3588216 1.076411-1.0649907v-5.1747488c0-.7072122-.359152-1.0660337-1.076411-1.0660337h-13.857618c-.706819 0-1.065971.3588215-1.065971 1.0660337v46.8689757c0 .7165999.359152 1.0649906 1.065971 1.0649906h13.857618c.717259 0 1.076411-.3483907 1.076411-1.0649906v-5.176835c0-.705126-.359152-1.0639476-1.076411-1.0639476h-7.302056v-34.3884536z"/></g></g></svg>

<?xml version="1.0" encoding="UTF-8"?>
<svg width="349px" height="230px" viewBox="0 0 349 230" version="1.1" xmlns="http://www.w3.org/2000/svg" xmlns:xlink="http://www.w3.org/1999/xlink">
    <!-- Generator: Sketch 53.2 (72643) - https://sketchapp.com -->
    <title>logo_header_large@3x</title>
    <desc>Created with Sketch.</desc>
    <defs>
        <filter x="-43.3%" y="-55.9%" width="186.6%" height="214.5%" filterUnits="objectBoundingBox" id="filter-1">
            <feOffset dx="0" dy="2" in="SourceAlpha" result="shadowOffsetOuter1"></feOffset>
            <feGaussianBlur stdDeviation="2" in="shadowOffsetOuter1" result="shadowBlurOuter1"></feGaussianBlur>
            <feColorMatrix values="0 0 0 0 0   0 0 0 0 0   0 0 0 0 0  0 0 0 0.5 0" type="matrix" in="shadowBlurOuter1" result="shadowMatrixOuter1"></feColorMatrix>
            <feMerge>
                <feMergeNode in="shadowMatrixOuter1"></feMergeNode>
                <feMergeNode in="SourceGraphic"></feMergeNode>
            </feMerge>
        </filter>
        <path d="M201,0 L201,80.8405116 L201,148.345602 C201,150.364918 199.360887,152 197.338931,152 L173.309768,152 L27.9538294,152 L3.66106881,152 C1.63911281,152 0,150.364918 0,148.345602 L0,0 L201,0 Z" id="path-2"></path>
        <filter x="-56.5%" y="-73.4%" width="212.9%" height="249.3%" filterUnits="objectBoundingBox" id="filter-3">
            <feMorphology radius="12.5" operator="erode" in="SourceAlpha" result="shadowSpreadOuter1"></feMorphology>
            <feOffset dx="0" dy="2" in="shadowSpreadOuter1" result="shadowOffsetOuter1"></feOffset>
            <feGaussianBlur stdDeviation="50" in="shadowOffsetOuter1" result="shadowBlurOuter1"></feGaussianBlur>
            <feColorMatrix values="0 0 0 0 0   0 0 0 0 0.654901961   0 0 0 0 0.929411765  0 0 0 1 0" type="matrix" in="shadowBlurOuter1"></feColorMatrix>
        </filter>
    </defs>
    <g id="Page-1" stroke="none" stroke-width="1" fill="none" fill-rule="evenodd">
        <g id="01.--Home-Page-(Filled)" transform="translate(-61.000000, 0.000000)">
            <g id="header_large_logo">
                <g id="logo_header_large" filter="url(#filter-1)" transform="translate(135.000000, 0.000000)">
                    <g id="Fill-1">
                        <use fill="black" fill-opacity="1" filter="url(#filter-3)" xlink:href="#path-2"></use>
                        <use fill="#002150" fill-rule="evenodd" xlink:href="#path-2"></use>
                    </g>
                    <polygon id="Fill-4" fill="#FFFFFF" points="28 111 31 111 31 90 28 90"></polygon>
                    <polygon id="Fill-6" fill="#FFFFFF" points="65.1220836 90 65.1220836 105.171918 51.2780688 90 47 90 47 111 50.8779164 111 50.8779164 95.2895655 65.2917817 111 69 111 69 90"></polygon>
                    <polygon id="Fill-7" fill="#FFFFFF" points="81 90 81 93.526377 90.0313747 93.526377 90.0313747 111 93.9778149 111 93.9778149 93.526377 103 93.526377 103 90"></polygon>
                    <path d="M119.960756,99.3342775 L119.960756,93.4159122 L127.600381,93.4159122 C130.837458,93.4159122 132.480597,93.9023823 132.480597,96.3538516 C132.480597,98.8371858 130.837458,99.3342775 127.600381,99.3342775 L119.960756,99.3342775 Z M130.779031,102.455971 C133.761898,102.282839 136.442378,100.145769 136.442378,96.2731273 C136.442378,91.1248293 132.979792,90 128.186704,90 L116,90 L116,111 L119.960756,111 L119.960756,102.739568 L126.230927,102.739568 L132.118758,111 L137,111 L130.779031,102.455971 Z" id="Fill-8" fill="#FFFFFF"></path>
                    <path d="M155.888168,102.658204 L160.072758,93.2946591 L164.247242,102.658204 L155.888168,102.658204 Z M162.299958,90 L157.845558,90 L148,111 L152.156295,111 L154.267284,106.175905 L165.790316,106.175905 L167.873011,111 L172,111 L162.299958,90 Z" id="Fill-9" fill="#FFFFFF"></path>
                    <polygon id="Fill-10" fill="#FFFFFF" points="65 124.349036 65 123 58 123 58 131 59.4876274 131 59.4876274 127.546039 64.2317322 127.546039 64.2317322 126.207709 59.4876274 126.207709 59.4876274 124.349036"></polygon>
                    <polygon id="Fill-11" fill="#FFFFFF" points="72 131 73 131 73 123 72 123"></polygon>
                    <polygon id="Fill-12" fill="#FFFFFF" points="79 123 79 124.349036 82.2767528 124.349036 82.2767528 131 83.7134071 131 83.7134071 124.349036 87 124.349036 87 123"></polygon>
                    <polygon id="Fill-13" fill="#FFFFFF" points="100.585446 123 100.585446 128.773019 95.5598436 123 94 123 94 131 95.4054736 131 95.4054736 125.012848 100.652037 131 102 131 102 123"></polygon>
                    <polygon id="Fill-14" fill="#FFFFFF" points="109.497875 129.650964 109.497875 127.546039 114.118716 127.546039 114.118716 126.207709 109.497875 126.207709 109.497875 124.349036 114.872783 124.349036 114.872783 123 108 123 108 131 115 131 115 129.650964"></polygon>
                    <path d="M126.281593,126.32193 L124.478172,126.049272 C122.958642,125.864437 122.763595,125.514169 122.763595,125.192494 C122.763595,124.490937 123.786827,124.237682 124.790656,124.237682 C126.602247,124.237682 127.226194,124.821802 127.470258,125.503957 L128.873372,125.046464 C128.678325,124.51953 128.112586,123 124.829461,123 C124.24432,123 121.281848,123 121.281848,125.289507 C121.281848,126.449579 122.266275,127.219556 124.02987,127.452387 L125.852693,127.705642 C126.943324,127.842481 127.509063,128.164156 127.509063,128.661476 C127.509063,129.323207 126.505234,129.723513 125.286954,129.723513 C123.270105,129.723513 122.705387,128.913709 122.431708,128.359203 L121,128.807506 C121.175645,129.381414 121.974215,131 125.238958,131 C127.275211,131 129,130.327036 129,128.524636 C129,127.248149 127.985959,126.585397 126.281593,126.32193" id="Fill-15" fill="#FFFFFF"></path>
                    <path d="M140.291805,126.32193 L138.479193,126.049272 C136.958642,125.864437 136.773806,125.514169 136.773806,125.192494 C136.773806,124.490937 137.786827,124.237682 138.800868,124.237682 C140.61348,124.237682 141.227215,124.821802 141.470258,125.503957 L142.873372,125.046464 C142.688537,124.51953 142.123819,123 138.839673,123 C138.254532,123 135.28287,123 135.28287,125.289507 C135.28287,126.449579 136.267296,127.219556 138.030891,127.452387 L139.852693,127.705642 C140.944345,127.842481 141.509063,128.164156 141.509063,128.661476 C141.509063,129.323207 140.506255,129.723513 139.287975,129.723513 C137.280317,129.723513 136.715599,128.913709 136.442941,128.359203 L135,128.807506 C135.175645,129.381414 135.974215,131 139.24917,131 C141.285423,131 143,130.327036 143,128.524636 C143,127.248149 141.996171,126.585397 140.291805,126.32193" id="Fill-16" fill="#FFFFFF"></path>
                    <path d="M98.9339598,23 L85.0660402,23 C84.358131,23 84,23.3588215 84,24.0649906 L84,29.2397394 C84,29.9469516 84.358131,30.3057732 85.0660402,30.3057732 L92.3790133,30.3057732 L92.3790133,64.6942268 L85.0660402,64.6942268 C84.358131,64.6942268 84,65.0520053 84,65.7581744 L84,70.9350094 C84,71.6516093 84.358131,72 85.0660402,72 L98.9339598,72 C99.641869,72 100,71.6516093 100,70.9350094 L100,24.0649906 C100,23.3588215 99.641869,23 98.9339598,23" id="Fill-17" fill="#FFFFFF"></path>
                    <path d="M118.923589,30.3057732 C119.640848,30.3057732 120,29.9469516 120,29.2407825 L120,24.0660337 C120,23.3588215 119.640848,23 118.923589,23 L105.065971,23 C104.359152,23 104,23.3588215 104,24.0660337 L104,70.9350094 C104,71.6516093 104.359152,72 105.065971,72 L118.923589,72 C119.640848,72 120,71.6516093 120,70.9350094 L120,65.7581744 C120,65.0530484 119.640848,64.6942268 118.923589,64.6942268 L111.621533,64.6942268 L111.621533,30.3057732 L118.923589,30.3057732 Z" id="Fill-18" fill="#FFFFFF"></path>
                </g>
            </g>
        </g>
    </g>
</svg>
